X:822
T:Micho Russell's
R:reel
D:Mary Bergin: Feadoga Stain 2
Z:id:hn-reel-822
M:C|
L:1/8
K:G
DG~G2 FGAc|BG~G2 ABcA|d^cde f2ef|dcAF GFEF|
DG~G2 FGAc|BG~G2 ABcA|d^cde f2ef|1 dcAF GAGF:|2 dcAF GABd||
|:~g3a fdde|fdge fdd2|gage fdd^c|defa ~g3f|
gbag fddc|BG~G2 ABcA|d2cA BGGA|1 BdcA GABd:|2 BdcA GFEF||
